art/standard/gamepad/vita/rightxy.svg

<svg width="100px" height="100px" preserveAspectRatio="none" version="1.1" viewBox="0 0 100 100" xmlns="http://www.w3.org/2000/svg">
 <g>
  <g fill-rule="evenodd">
   <circle cx="50" cy="50" r="48.15" fill="#4b4b4b"/>
   <circle cx="50" cy="50" r="43.2" fill="#d6d6d6"/>
   <circle cx="50" cy="50" r="41" fill="#353535"/>
   <circle cx="50" cy="50" r="35" fill="#202020"/>
   <circle cx="50.025" cy="50.025" r="30" fill="#353535"/>
   <circle cx="50" cy="50" r="23.75" fill="#4b4b4b"/>
  </g>
  <path d="m59.35 41.5c-0.5-0.96667-1.1833-1.7333-2.05-2.3-0.83333-0.56667-1.8167-0.96667-2.95-1.2-1.1333-0.26667-2.3333-0.4-3.6-0.4h-9.55v24.8h5.45v-9.9h2.65l5.2 9.9h6.55l-6.3-10.5c1.7333-0.3 3.0667-1.0667 4-2.3 0.9-1.2333 1.35-2.7167 1.35-4.45 0-1.4667-0.25-2.6833-0.75-3.65m-9.5 6.35h-3.2v-5.6h3.55c0.5 0 1 0.03333 1.5 0.1s0.95 0.2 1.35 0.4 0.73333 0.48333 1 0.85c0.23333 0.36667 0.35 0.86667 0.35 1.5 0 0.7-0.13333 1.2333-0.4 1.6-0.3 0.36667-0.66667 0.63333-1.1 0.8-0.46667 0.16667-0.96667 0.26667-1.5 0.3-0.53333 0.03333-1.05 0.05-1.55 0.05z" fill="#d6d6d6"/>
 </g>
</svg>

<svg xmlns="http://www.w3.org/2000/svg" version="1.1" xmlns:xlink="http://www.w3.org/1999/xlink" preserveAspectRatio="none" x="0px" y="0px" width="100px" height="100px" viewBox="0 0 100 100">
<defs/>

<g id="PS_Vita">
<g>
<g>
<g>
<path fill="#D6D6D6" stroke="none" d="
M 82.25 82.25
Q 95.65 68.9 95.65 50 95.65 31.1 82.25 17.7 68.9 4.35 50 4.35 31.1 4.35 17.7 17.7 4.35 31.1 4.35 50 4.35 68.9 17.7 82.25 31.1 95.65 50 95.65 68.9 95.65 82.25 82.25
M 50 9.05
Q 67 9.05 78.9 21 90.95 33.05 90.95 50 90.95 67 78.9 78.9 67 90.95 50 90.95 33.05 90.95 21 78.9 9.05 67 9.05 50 9.05 33.05 21 21 33.05 9.05 50 9.05
M 59.35 41.5
Q 58.6 40.05 57.3 39.2 56.05 38.35 54.35 38 52.65 37.6 50.75 37.6
L 41.2 37.6 41.2 62.4 46.65 62.4 46.65 52.5 49.3 52.5 54.5 62.4 61.05 62.4 54.75 51.9
Q 57.35 51.45 58.75 49.6 60.1 47.75 60.1 45.15 60.1 42.95 59.35 41.5
M 49.85 47.85
L 46.65 47.85 46.65 42.25 50.2 42.25
Q 50.95 42.25 51.7 42.35 52.45 42.45 53.05 42.75 53.65 43.05 54.05 43.6 54.4 44.15 54.4 45.1 54.4 46.15 54 46.7 53.55 47.25 52.9 47.5 52.2 47.75 51.4 47.8 50.6 47.85 49.85 47.85 Z"/>

<path fill="#353535" stroke="none" d="
M 78.9 21
Q 67 9.05 50 9.05 33.05 9.05 21 21 9.05 33.05 9.05 50 9.05 67 21 78.9 33.05 90.95 50 90.95 67 90.95 78.9 78.9 90.95 67 90.95 50 90.95 33.05 78.9 21
M 50.05 17.45
Q 63.5 17.45 73.05 27 82.6 36.55 82.6 50.05 82.6 63.5 73.05 73.05 63.5 82.6 50.05 82.6 36.55 82.6 27 73.05 17.45 63.5 17.45 50.05 17.45 36.55 27 27 36.55 17.45 50.05 17.45
M 73.05 27
Q 63.5 17.45 50.05 17.45 36.55 17.45 27 27 17.45 36.55 17.45 50.05 17.45 63.5 27 73.05 36.55 82.6 50.05 82.6 63.5 82.6 73.05 73.05 82.6 63.5 82.6 50.05 82.6 36.55 73.05 27
M 50 26.25
Q 59.8 26.25 66.75 33.2 73.75 40.2 73.75 50 73.75 59.8 66.75 66.75 59.8 73.75 50 73.75 40.2 73.75 33.2 66.75 26.25 59.8 26.25 50 26.25 40.2 33.2 33.2 40.2 26.25 50 26.25 Z"/>

<path fill="#4B4B4B" stroke="none" d="
M 66.75 33.2
Q 59.8 26.25 50 26.25 40.2 26.25 33.2 33.2 26.25 40.2 26.25 50 26.25 59.8 33.2 66.75 40.2 73.75 50 73.75 59.8 73.75 66.75 66.75 73.75 59.8 73.75 50 73.75 40.2 66.75 33.2
M 57.3 39.2
Q 58.6 40.05 59.35 41.5 60.1 42.95 60.1 45.15 60.1 47.75 58.75 49.6 57.35 51.45 54.75 51.9
L 61.05 62.4 54.5 62.4 49.3 52.5 46.65 52.5 46.65 62.4 41.2 62.4 41.2 37.6 50.75 37.6
Q 52.65 37.6 54.35 38 56.05 38.35 57.3 39.2
M 46.65 47.85
L 49.85 47.85
Q 50.6 47.85 51.4 47.8 52.2 47.75 52.9 47.5 53.55 47.25 54 46.7 54.4 46.15 54.4 45.1 54.4 44.15 54.05 43.6 53.65 43.05 53.05 42.75 52.45 42.45 51.7 42.35 50.95 42.25 50.2 42.25
L 46.65 42.25 46.65 47.85 Z"/>
</g>
</g>

<g>
<path stroke="#4B4B4B" stroke-width="5" stroke-linejoin="round" stroke-linecap="round" fill="none" d="
M 95.65 50
Q 95.65 68.9 82.25 82.25 68.9 95.65 50 95.65 31.1 95.65 17.7 82.25 4.35 68.9 4.35 50 4.35 31.1 17.7 17.7 31.1 4.35 50 4.35 68.9 4.35 82.25 17.7 95.65 31.1 95.65 50 Z"/>
</g>

<g>
<path stroke="#202020" stroke-width="5" stroke-linejoin="round" stroke-linecap="round" fill="none" d="
M 50.05 17.45
Q 63.5 17.45 73.05 27 82.6 36.55 82.6 50.05 82.6 63.5 73.05 73.05 63.5 82.6 50.05 82.6 36.55 82.6 27 73.05 17.45 63.5 17.45 50.05 17.45 36.55 27 27 36.55 17.45 50.05 17.45 Z"/>
</g>
</g>
</g>
</svg>
